X: 76
M: C
L: 1/8
K: D
[A3D3]B [A2D2][AF]G | [A2D2]d2 [f4A4] | g2f2 e2[e2c2] | [d4D4] [d2D2]z2 ||
[e3A3]f [e2A2]cd | e2[a2A2] ^g2f2 | [e3A3]f [e2A2]c2 | d2c2 B2[A2D2] |
[e3A3]f [e2A2]cd | e2[a2A2] [a2A2]z2 | d2c2 B2cB | A2c2 "D.C."A2z2 |]


